X: 1333
T: An Pangur Ban
R: jig
M: 6/8
K: Adorian
|:E|Adc AGE|GAB c2d|eaa bag|age def|
g2b age|edB def|gfe dBG|ABA A2:|
|:a|agb age|def g2b|age edB|AGE GAB|
c2A BAG|ABA F/G/AB|ceg dBG|ABA A2:|

